X:802
T:Cill Chais
M:3/4
L:1/4
R:Other
K:G
B/2A/2|G>ED|G2 B/2d/2|e3|d2 B/2A/2|GAB|BAG|A3|A2B/2A/2|\
G2E/2D/2|G2 B/2d/2|e3|d2 B/2A/2|GAB|A2G|G3|G2d||\
d2B/2c/2|d2e/2f/2|g3|f2e|edB|BAG|A3|A2B/2A/2|\
G>ED|G2 B/2d/2|e3|d2 B/2A/2|GAB|A2G|G3|G2d||
